svg/fluentui-system-icons/ic_fluent_video_background_effect_horizontal_16_regular.svg

<svg width="16" height="16" viewBox="0 0 16 16" fill="none" xmlns="http://www.w3.org/2000/svg">
<path d="M1.16797 4C1.44883 3.40876 2.05146 3 2.74956 3H13.2496C13.9477 3 14.5503 3.40876 14.8312 4H1.16797ZM5.17071 6H1V7H5C5 6.64936 5.06015 6.31278 5.17071 6ZM6 7C6 6.63571 6.09739 6.29417 6.26756 6C6.61337 5.4022 7.25972 5 8 5C8.74028 5 9.38663 5.4022 9.73244 6C9.90261 6.29417 10 6.63571 10 7C10 8.10457 9.10457 9 8 9C6.89543 9 6 8.10457 6 7ZM7 7C7 7.55228 7.44772 8 8 8C8.55228 8 9 7.55228 9 7C9 6.44772 8.55228 6 8 6C7.44772 6 7 6.44772 7 7ZM5.76389 9H1V10H4.26756C4.57786 9.46358 5.13014 9.08466 5.77515 9.0125L5.76389 9ZM4 12H1.16797C1.44883 12.5912 2.05146 13 2.74956 13H4V12ZM5 11C5 10.4477 5.44772 10 6 10H10C10.5523 10 11 10.4477 11 11V13H10V11H6V13H5V11ZM12 12V13H13.2496C13.9477 13 14.5503 12.5912 14.8312 12H12ZM11.7324 10C11.4221 9.46358 10.8699 9.08466 10.2249 9.0125L10.2361 9H15V10H11.7324ZM11 7H15V6H10.8293C10.9398 6.31278 11 6.64936 11 7Z" fill="#212121"/>
</svg>

<svg xmlns="http://www.w3.org/2000/svg" width="16" height="16"><path d="M1.168 4c.28-.591.883-1 1.582-1h10.5c.698 0 1.3.409 1.581 1H1.168Zm4.003 2H1v1h4c0-.35.06-.687.17-1ZM6 7a2 2 0 1 1 3.998-.002A2 2 0 0 1 6 7Zm1 0a1 1 0 1 0 2 0 1 1 0 0 0-2 0ZM5.764 9H1v1h3.268a2 2 0 0 1 1.507-.988L5.764 9ZM4 12H1.168c.28.591.883 1 1.582 1H4v-1Zm1-1a1 1 0 0 1 1-1h4a1 1 0 0 1 1 1v2h-1v-2H6v2H5v-2Zm7 1v1h1.25c.698 0 1.3-.409 1.581-1H12Zm-.268-2a2 2 0 0 0-1.507-.988L10.236 9H15v1h-3.268ZM11 7h4V6h-4.17c.11.313.17.65.17 1Z"/></svg>
